X:3775
T:Lorayda. CJF.189
O:england
M:C|
L:1/8
Q:90
C:"Sung by Miss Paton"
S: C.J.Fox MS, 1829/33, Beverley,E.Yorks.
R:Air
A:East Yorkshire
B:Kidson Coll.Mitchell Lib.M1805
N:"Sung by Miss Paton" is in the title line. "C J Fox 1831" is in the
N:stave, after the tune. - PJH.
K:F
(c>B)|(Af) ed (dc) AA|cB AGF2EG|c2 c2 (d/c/=B/A/)G2cd|e2dd
c2c>_B|(Af) ed dc2A|(cB) AGF2E (A3/4B/4)|cfe2c/B/ G|F2A>GF2z2|
c'/b/g/e/ (=B/c/d/c/)f2zG|e2f>=Bc2c>d|e2f>=B dczc|c>=B c>A (Gc) ce|
(ed) c=Bc2zc|(c>f) Ac cB B>B|(B>d Gc BA (c>B)|(Af) ed chc (F>G)|
(A>G) cB (BA) (c>B)|(Af) ed cc (c>B)|A/ cz/BGF2z2||


